X:1
T:Title
%%score { 1 | 2 }
L:1/8
M:4/4
K:Ab
V:1 treble nm="Grand Piano"
V:2 bass 
V:1
 z4 z2 z[Q:1/4=100] [Ec] | [Ec]3 [DB] [CA]3 B | A2 F2 [CE]3 [CA] | B3 c d3 d |[M:7/8] c2 B2 [Ec]3 | %5
[M:1/8] e |[M:4/4] e3 e e3 c | [FB]2 [FA]2 [DF]3 [FA] | G2 d2 c3 B |[M:3/4] [CA]6 |[M:1/4] [EB]2 | %11
[M:4/4] [GB]3 [Ac] [Bd]3 [Bd] | [Ac]2 B2 A3 c | c3 d e3 e | c2 A2 B3 [Ge] | e3 e e3 c | %16
 [FB]2 [FA]2 [DF]3 [FA] | G2 d2 c3 B |[M:7/8] [DB][CA]-[CA]- [CA]- [CA]3 |] %19
V:2
 z4 z2 z [A,,A,] | [A,,A,]3 [A,,G,] [A,,A,]3 [E,G,D] | [F,A,C]2 [D,A,D]2 [A,,A,]3 [A,,A,] | %3
 [E,G,E]3 [E,A,E] [E,B,E]3 [E,B,E] |[M:7/8] [E,A,E]2 [E,G,E]2 [A,,A,]3 |[M:1/8][K:treble] [A,CA] | %6
[M:4/4] [A,CA]3 [A,CA] [A,CA]3 [A,EA] | [D,D]2 [D,D]2 [D,A,]3 [D,D] | %8
 [E,B,E]2 [E,B,E]2 [E,A,E]3 [E,G,D] |[M:3/4] [A,,A,]6 |[M:1/4] [E,G,]2 | %11
[M:4/4] [E,E]3 [E,E] [E,E]3 [E,E] | [E,E]2 [E,DE]2 [A,CE]3 [A,E] | [A,E]3 [A,B,E] [A,CE]3 [A,CE] | %14
 [A,E]2 [F,B,=D]2 [E,G,E]3 [E,_D] | [A,CA]3 [A,CA] [A,CA]3 [A,EA] | [D,D]2 [D,D]2 [D,A,]3 [D,D] | %17
 [E,B,E]2 [E,B,E]2 [E,A,E]3 [E,G,D] |[M:7/8] [A,,A,][A,,A,]-[A,,A,]- [A,,A,]- [A,,A,]3 |] %19

